docs/public/img/adapters/azure-tables.svg

<svg id="b089cfca-0de1-451c-a1ca-6680ea50cb4f" xmlns="http://www.w3.org/2000/svg" width="18" height="18" viewBox="0 0 18 18"><defs><radialGradient id="b25d0836-964a-4c84-8c20-855f66e8345e" cx="-105.006" cy="-10.409" r="5.954" gradientTransform="translate(117.739 19.644) scale(1.036 1.027)" gradientUnits="userSpaceOnUse"><stop offset="0.183" stop-color="#5ea0ef" /><stop offset="1" stop-color="#0078d4" /></radialGradient><clipPath id="b36c7f5d-2ef1-4760-8a25-eeb9661f4e47"><path d="M14.969,7.53A6.137,6.137,0,1,1,7.574,2.987,6.137,6.137,0,0,1,14.969,7.53Z" fill="none" /></clipPath></defs><title>Icon-databases-121</title><path d="M2.954,5.266a.175.175,0,0,1-.176-.176h0A2.012,2.012,0,0,0,.769,3.081a.176.176,0,0,1-.176-.175h0a.176.176,0,0,1,.176-.176A2.012,2.012,0,0,0,2.778.72.175.175,0,0,1,2.954.544h0A.175.175,0,0,1,3.13.72h0A2.012,2.012,0,0,0,5.139,2.729a.175.175,0,0,1,.176.176h0a.175.175,0,0,1-.176.176h0A2.011,2.011,0,0,0,3.13,5.09.177.177,0,0,1,2.954,5.266Z" fill="#50e6ff" /><path d="M15.611,17.456a.141.141,0,0,1-.141-.141h0a1.609,1.609,0,0,0-1.607-1.607.141.141,0,0,1-.141-.14h0a.141.141,0,0,1,.141-.141h0a1.608,1.608,0,0,0,1.607-1.607.141.141,0,0,1,.141-.141h0a.141.141,0,0,1,.141.141h0a1.608,1.608,0,0,0,1.607,1.607.141.141,0,1,1,0,.282h0a1.609,1.609,0,0,0-1.607,1.607A.141.141,0,0,1,15.611,17.456Z" fill="#50e6ff" /><g><path d="M14.969,7.53A6.137,6.137,0,1,1,7.574,2.987,6.137,6.137,0,0,1,14.969,7.53Z" fill="url(#b25d0836-964a-4c84-8c20-855f66e8345e)" /><g clip-path="url(#b36c7f5d-2ef1-4760-8a25-eeb9661f4e47)"><path d="M5.709,13.115A1.638,1.638,0,1,0,5.714,9.84,1.307,1.307,0,0,0,5.721,9.7,1.651,1.651,0,0,0,4.06,8.064H2.832a6.251,6.251,0,0,0,1.595,5.051Z" fill="#f2f2f2" /><path d="M15.045,7.815c0-.015,0-.03-.007-.044a5.978,5.978,0,0,0-1.406-2.88,1.825,1.825,0,0,0-.289-.09,1.806,1.806,0,0,0-2.3,1.663,2,2,0,0,0-.2-.013,1.737,1.737,0,0,0-.581,3.374,1.451,1.451,0,0,0,.541.1h2.03A13.453,13.453,0,0,0,15.045,7.815Z" fill="#f2f2f2" /></g></g><path d="M17.191,3.832c-.629-1.047-2.1-1.455-4.155-1.149a14.606,14.606,0,0,0-2.082.452,6.456,6.456,0,0,1,1.528.767c.241-.053.483-.116.715-.151A7.49,7.49,0,0,1,14.3,3.662a2.188,2.188,0,0,1,1.959.725h0c.383.638.06,1.729-.886,3a16.723,16.723,0,0,1-4.749,4.051A16.758,16.758,0,0,1,4.8,13.7c-1.564.234-2.682,0-3.065-.636s-.06-1.73.886-2.995c.117-.157.146-.234.279-.392a6.252,6.252,0,0,1,.026-1.63A11.552,11.552,0,0,0,1.756,9.419C.517,11.076.181,12.566.809,13.613a3.165,3.165,0,0,0,2.9,1.249,8.434,8.434,0,0,0,1.251-.1,17.855,17.855,0,0,0,6.219-2.4,17.808,17.808,0,0,0,5.061-4.332C17.483,6.369,17.819,4.88,17.191,3.832Z" fill="#50e6ff" /></svg>

<svg xmlns="http://www.w3.org/2000/svg" xmlns:xlink="http://www.w3.org/1999/xlink" viewBox="0 0 18 18"><defs><radialGradient id="a" cx="-105.01" cy="-10.41" r="5.95" gradientTransform="matrix(1.036 0 0 1.027 117.74 19.64)" gradientUnits="userSpaceOnUse"><stop offset=".18" stop-color="#5ea0ef"/><stop offset="1" stop-color="#0078d4"/></radialGradient><clipPath id="b"><path fill="none" d="M14.97 7.53a6.14 6.14 0 1 1-7.4-4.54 6.14 6.14 0 0 1 7.4 4.54Z"/></clipPath></defs><path fill="#50e6ff" d="M2.95 5.27a.18.18 0 0 1-.17-.18 2.01 2.01 0 0 0-2.01-2 .18.18 0 0 1-.18-.18.18.18 0 0 1 .18-.18 2.01 2.01 0 0 0 2-2.01.18.18 0 0 1 .18-.18.18.18 0 0 1 .18.18 2.01 2.01 0 0 0 2 2 .18.18 0 0 1 .19.18.18.18 0 0 1-.18.18A2.01 2.01 0 0 0 3.13 5.1a.18.18 0 0 1-.18.18Z"/><path fill="#50e6ff" d="M15.61 17.46a.14.14 0 0 1-.14-.15 1.6 1.6 0 0 0-1.6-1.6.14.14 0 0 1-.15-.14.14.14 0 0 1 .14-.14 1.6 1.6 0 0 0 1.61-1.61.14.14 0 0 1 .14-.14.14.14 0 0 1 .14.14 1.6 1.6 0 0 0 1.6 1.6.14.14 0 1 1 0 .29 1.6 1.6 0 0 0-1.6 1.6.14.14 0 0 1-.14.15Z"/><path fill="url(#a)" d="M14.97 7.53a6.14 6.14 0 1 1-7.4-4.54 6.14 6.14 0 0 1 7.4 4.54Z"/><g clip-path="url(#b)"><path fill="#f2f2f2" d="M5.7 13.12a1.64 1.64 0 1 0 .01-3.28 1.3 1.3 0 0 0 .01-.14 1.65 1.65 0 0 0-1.66-1.64H2.83a6.25 6.25 0 0 0 1.6 5.06Z"/><path fill="#f2f2f2" d="m15.05 7.82-.01-.05a5.98 5.98 0 0 0-1.4-2.88 1.83 1.83 0 0 0-.3-.09 1.8 1.8 0 0 0-2.3 1.66 2 2 0 0 0-.2 0 1.74 1.74 0 0 0-.58 3.37 1.45 1.45 0 0 0 .54.1h2.03a13.45 13.45 0 0 0 2.22-2.11Z"/></g><path fill="#50e6ff" d="M17.2 3.83c-.64-1.05-2.1-1.45-4.16-1.15a14.6 14.6 0 0 0-2.09.45 6.46 6.46 0 0 1 1.53.77l.72-.15a7.49 7.49 0 0 1 1.1-.09 2.19 2.19 0 0 1 1.96.73c.38.63.06 1.73-.89 3a16.72 16.72 0 0 1-4.75 4.05A16.76 16.76 0 0 1 4.8 13.7c-1.56.23-2.68 0-3.06-.64s-.07-1.73.88-3c.12-.15.15-.23.28-.38a6.25 6.25 0 0 1 .03-1.63 11.55 11.55 0 0 0-1.17 1.37C.52 11.08.18 12.57.8 13.62a3.17 3.17 0 0 0 2.9 1.24 8.43 8.43 0 0 0 1.25-.1 17.86 17.86 0 0 0 6.22-2.4 17.8 17.8 0 0 0 5.06-4.33c1.24-1.66 1.58-3.15.95-4.2Z"/></svg>
